svg/pause-to-play-transition.svg

<svg xmlns="http://www.w3.org/2000/svg" width="24" height="24" viewBox="0 0 24 24">
	<path d="M13 15l-5 3l0 -12l5 3l0 0M13 9l5 3l0 0l-5 3l0 0" stroke="currentColor" fill="none" stroke-width="2" stroke-linecap="round" stroke-linejoin="round">
		<animate attributeName="d" dur="0.6s" fill="freeze" keyTimes="0;0.33;1" values="M9 18l-2 0l0 -12l2 0l0 12M15 6l2 0l0 12l-2 0l0 -12;M13 15l-5 3l0 -12l5 3l0 6M13 9l5 3l0 0l-5 3l0 -6;M13 15l-5 3l0 -12l5 3l0 0M13 9l5 3l0 0l-5 3l0 0" />
	</path>
</svg>

<svg xmlns="http://www.w3.org/2000/svg" width="24" height="24" viewBox="0 0 24 24">
	<g fill="none" stroke="currentColor" stroke-width="2" stroke-linecap="round" stroke-linejoin="round">
		<path d="M9 18L7 18L7 6L9 6L9 18M15 6L17 6L17 18L15 18L15 6">
			<animate attributeName="d" values="M9 18L7 18L7 6L9 6L9 18M15 6L17 6L17 18L15 18L15 6;M13 15L8 18L8 6L13 9L13 15M13 9L18 12L18 12L13 15L13 9;M13 15L8 18L8 6L13 9L13 9M13 9L18 12L18 12L13 15L13 15" dur="0.6s" keyTimes="0;0.66;1" fill="freeze" />
		</path>
	</g>
</svg>
